**kern	**silbe	**kern	**silbe
*ICvox	*	*ICvox	*
*E:	*	*E:	*
*M4/4	*	*M4/4	*
*clefF4	*	*clefC3	*
r;	.	r;	.
r;	.	r;	.
=1	=1	=1	=1
1r	.	1r	.
=2	=2	=2	=2
2r	.	2r	.
4r	.	4r	.
8Gq	_	8B-q	_
8G#	Got	8B	Got
8G#	me	8B	me
=3	=3	=3	=3
8B	run-	8d	run-
8B	-nin'	8d	-nin'
4r	.	4r	.
8r	.	8r	.
8~BB	you	8~G#	you
8Gq	_	8B-q	_
8G#	got	8B	got
8G#	me	8B	me
=4	=4	=4	=4
8B	hi-	8d	hi-
8B	-din'	8d	-din'
4r	.	4r	.
8r	.	8r	.
8~BB	you	8~G#	you
8Gq	_	8B-q	_
8G#	got	8B	got
8G#	me	8B	me
=5	=5	=5	=5
8Aq	_	8c#q	_
4B	run,	4d	run,
8Aq	_	8c#q	_
4B	hide,	4d	hide,
8Aq	_	8c#q	_
4B	hide,	4d	hide,
8Aq	_	8c#q	_
8B	run,	8d	run,
[8B	a	[8d	a
=6	=6	=6	=6
8B]	_	8d]	_
8B	ny-	8d	ny
8A	-way	4r	.
8B	you	.	.
8G	wan-	2r	.
8F#	-na	.	.
8E	let	.	.
8D	it	.	.
=7	=7	=7	=7
8C#q	_	.	.
4.G	roll	1r	.
8r	.	.	.
2r	.	.	.
=8	=8	=8	=8
4.B	Yeah,	4d	yeah,
.	.	8B	_
8A	y-	8B	yeah!
4B	-yeah,	[4B	_
8A	y-	8B]	_
8B	-yeah	8B	_
=9	=9	=9	=9
8Gq	_	.	.
4G#	_	1r	.
4r	.	.	.
2r	.	.	.
=10	=10	=10	=10
2r	.	1r	.
8r	.	.	.
8~BB	You've	.	.
8Gq	_	.	.
8G#	got	.	.
8G#	me	.	.
=11	=11	=11	=11
8Aq	_	8c#q	_
4B	doin'	4d	doin'
8B	what	8d	what
8A	you	8B	you
8A	want	8B	want
[8A	me,	[8B	me,
8A]	_	8B]	_
8C#	a-	8C#	a-
=12	=12	=12	=12
8Aq	_	8c#q	_
8B	-ba-	8d	-ba-
8B	-by,	8d	-by,
8A	why	8d	why
8G	you	8c#	you
8G	wan-	8B	wan-
8F#	-na	8B	-na
8E	let	8A	let
.	.	8Gq	_
[8E	go	8G#	go
=13	=13	=13	=13
4E]	_	1r	.
4r	.	.	.
2r	.	.	.
=14	=14	=14	=14
2r	.	2r	.
4r	.	4r	.
8Gq	_	8B-q	_
8G#	Go-	8B	Go-
8G#	-in'	8B	-in'
=15	=15	=15	=15
8B	up	8d	up
8r	.	8r	.
4r	.	4r	.
8r	.	8r	.
8~BB	I'm	8~G#	I'm
8Gq	_	8B-q	_
8G#	go-	8B	go-
8G#	-in'	8B	-in'
=16	=16	=16	=16
8B	down	8d	down
8r	.	8r	.
4r	.	4r	.
8r	.	8r	.
8~BB	I'm	8~G#	I'm
8Gq	_	8B-q	_
8G#	go-	8B	go-
8G#	-in'	8B	-in'
=17	=17	=17	=17
8Aq	_	8c#q	_
4B	up,	4d	up,
8Aq	_	8c#q	_
4B	down,	4d	down,
8Aq	_	8c#q	_
4B	down,	4d	down,
8Aq	_	8c#q	_
8B	up	8d	up
[8B	a	[8d	a
=18	=18	=18	=18
8B]	_	8d]	_
8B	ny-	8d	ny-
8A	-way	8~B	-way
8B	you	8A	you
8G	wan-	8G	wan
8F#	-na	8r	.
8E	let	4r	.
8D	it	.	.
=19	=19	=19	=19
8C#q	_	.	.
4.G	roll	1r	.
8r	.	.	.
2r	.	.	.
=20	=20	=20	=20
4.B	Yeah,	4d	Yeah,
.	.	8B	_
8A	y-	8B	y-
4B	-yeah,	[4B	-yeah!
8A	y-	8B]	_
8B	-yeah	8B	_
=21	=21	=21	=21
8Gq	_	.	.
4.G#	_	1r	.
16F#Q	_	.	.
16EQ	_	.	.
8r	.	.	.
2r	.	.	.
=22	=22	=22	=22
2r	.	1r	.
8r	.	.	.
8~BB	You've	.	.
8Gq	_	.	.
8G#	got	.	.
8G#	me	.	.
=23	=23	=23	=23
8Aq	_	8c#q	_
4B	doin'	4d	doin'
8B	what	8d	what
8A	you	8B	you
8A	want	8B	want
[8A	me,	[8B	me,
8A]	_	8B]	_
8~C#	a'-	8~C#	a'-
=24	=24	=24	=24
8Aq	_	8c#q	_
8B	-ba-	8d	-ba-
8B	-by	8d	-by
8A	why	8d	why
8G	you	8c#	you
8G	wan-	8B	wan-
8F#	-na	8B	-na
.	.	8~Gq	_
8E	let	8~G#	let
.	.	8~Gq	_
[8E	go	8~G#	go
=25	=25	=25	=25
8E]	_	1r	.
8r	.	.	.
4r	.	.	.
2r	.	.	.
=26	=26	=26	=26
1r	.	1r	.
=27	=27	=27	=27
1r	.	1r	.
=28	=28	=28	=28
1r	.	1r	.
=29	=29	=29	=29
1r	.	1r	.
=30	=30	=30	=30
1r	.	1r	.
=31	=31	=31	=31
1r	.	1r	.
=32	=32	=32	=32
1r	.	1r	.
=33	=33	=33	=33
1r	.	1r	.
=34	=34	=34	=34
1r	.	1r	.
=35	=35	=35	=35
1r	.	1r	.
=36	=36	=36	=36
1r	.	1r	.
=37	=37	=37	=37
1r	.	1r	.
=38	=38	=38	=38
2r	.	2r	.
8r	.	8r	.
8~BB	You've	8~E	You've
8Gq	_	8B-q	_
8G#	got	8B	got
8G#	me	8B	me
=39	=39	=39	=39
8Aq	_	8c#q	_
8B	hi-	8d	hi-
8B	-din'	8d	-din'
4r	.	4r	.
8r	.	8r	.
8~BB	you've	8~G#	you've
8Gq	_	8B-q	_
8G#	got	8B	got
8G#	me	8B	me
=40	=40	=40	=40
8Aq	_	8c#q	_
8B	pee-	8d	pee-
8B	-pin'	8d	-pin'
4r	.	4r	.
8r	.	8r	.
8~BB	you've	8~G#	you've
8Gq	_	8B-q	_
8G#	got	8B	got
8G#	me	8B	me
=41	=41	=41	=41
8Aq	_	8c#q	_
4B	peep,	4d	peep,
8Aq	_	8c#q	_
4B	hide,	4d	hide,
8Aq	_	8c#q	_
4B	hide,	4d	hide,
8Aq	_	8c#q	_
8B	peep	8d	peep
[8B	a	[8d	a
=42	=42	=42	=42
8B]	_	8d]	_
8A	ny-	8d	ny-
8B	-way	8d	-way
8A	you	8c#	you
8G	wan-	8B	wan-
8F#	-na	8A	-na
8E	let	8G	let
8D	it	8r	.
=43	=43	=43	=43
8C#q	_	.	.
4.G	roll	1r	.
8r	.	.	.
2r	.	.	.
=44	=44	=44	=44
4.B	Yeah,	4d	Yeah,
.	.	8B	_
8A	y-	8B	y-
4B	-yeah,	[4B	-yeah!
8A	y-	8B]	_
8B	-yeah	8B	_
=45	=45	=45	=45
8Gq	_	.	.
4G#	_	1r	.
4r	.	.	.
2r	.	.	.
=46	=46	=46	=46
2r	.	1r	.
8r	.	.	.
8~BB	You've	.	.
8Gq	_	.	.
8G#	got	.	.
8G#	me	.	.
=47	=47	=47	=47
8Aq	_	8c#q	_
4B	doin'	4d	doin'
8B	what	8d	what
8A	you	8B	you
8A	want	8B	want
[8A	me,	[8B	me,
8A]	_	8B]	_
8~C#	a'	8~C#	a'
=48	=48	=48	=48
8Aq	_	8c#q	_
8B	ba-	8d	ba-
8B	-by	8d	-by
8A	why	8d	why
8G	you	8c#	you
8G	wan-	8B	wan-
8F#	-na	8B	-na
8E	let	8A	let
.	.	8Gq	_
[8E	go	8G#	go
=49	=49	=49	=49
4E]	_	1r	.
4r	.	.	.
2r	.	.	.
=50	=50	=50	=50
1r	.	1r	.
=51	=51	=51	=51
1r	.	1r	.
=52	=52	=52	=52
1r	.	1r	.
=53	=53	=53	=53
1r	.	1r	.
=54	=54	=54	=54
1r	.	1r	.
=55	=55	=55	=55
1r	.	1r	.
=56	=56	=56	=56
1r	.	1r	.
=57	=57	=57	=57
1r	.	1r	.
=58	=58	=58	=58
1r	.	1r	.
r;	.	r;	.
r;	.	r;	.
*-	*-	*-	*-
!!!ENC: Nathaniel Condit-Schultz